Sources/FrostedUI/Resources/Icons.xcassets/plane32.imageset/plane-32.svg

<svg width="32" height="32" viewBox="0 0 32 32" fill="none" xmlns="http://www.w3.org/2000/svg" data-fui-icon="true">
  <path
    d="M16.0507 3.92969C16.2925 3.96376 16.5058 4.11462 16.6171 4.33691L20.7255 12.5527H26.3026C28.2063 12.5527 29.7497 14.0964 29.7499 16C29.7497 17.9036 28.2063 19.4463 26.3026 19.4463H20.7255L16.6171 27.6631L16.5634 27.7539C16.4247 27.9548 16.1946 28.0771 15.9462 28.0771H12.7098C12.4789 28.0771 12.2602 27.9711 12.118 27.7891C11.9761 27.6071 11.9263 27.3694 11.9823 27.1455L13.9071 19.4463H9.245L6.22742 22.4639C6.08681 22.6044 5.89596 22.6835 5.69714 22.6836H2.99988C2.75525 22.6836 2.52597 22.5637 2.38562 22.3633C2.2455 22.1629 2.21125 21.9065 2.2948 21.6768L4.35925 15.999L2.2948 10.3223L2.26941 10.2354C2.22178 10.0295 2.2628 9.81109 2.38562 9.63574C2.52598 9.4355 2.75534 9.31643 2.99988 9.31641H5.69714L5.84363 9.33105C5.9878 9.35982 6.1219 9.43069 6.22742 9.53613L9.24402 12.5527H13.9071L11.9823 4.85352C11.9265 4.62959 11.976 4.39188 12.118 4.20996C12.2602 4.0281 12.479 3.9219 12.7098 3.92188H15.9462L16.0507 3.92969ZM15.5946 13.1211C15.6504 13.3449 15.5998 13.5818 15.4579 13.7637C15.3158 13.9457 15.098 14.0527 14.8671 14.0527H8.93347C8.73463 14.0527 8.54382 13.9736 8.4032 13.833L5.3866 10.8164H4.07117L5.86218 15.7432C5.92235 15.9086 5.92229 16.0904 5.86218 16.2559L4.07019 21.1836H5.3866L8.4032 18.166L8.51746 18.0732C8.63976 17.9917 8.78429 17.9463 8.93347 17.9463H14.8671C15.0979 17.9463 15.3158 18.0535 15.4579 18.2354C15.6 18.4173 15.6505 18.6549 15.5946 18.8789L13.6708 26.5771H15.4823L19.5907 18.3613C19.7178 18.1075 19.9777 17.9463 20.2616 17.9463H26.3026C27.3778 17.9463 28.2497 17.0752 28.2499 16C28.2497 14.9248 27.3778 14.0527 26.3026 14.0527H20.2616C19.9775 14.0527 19.7177 13.8918 19.5907 13.6377L20.2616 13.3027V13.3018L19.5907 13.6377L15.4833 5.42188H13.6698L15.5946 13.1211Z"
    fill="currentColor"
  />
</svg>

<svg xmlns="http://www.w3.org/2000/svg" width="32" height="32" fill="none" data-fui-icon="true" viewBox="0 0 32 32"><path fill="currentColor" d="M16.05 3.93a.75.75 0 0 1 .567.407l4.108 8.216h5.578a3.448 3.448 0 0 1 0 6.893h-5.578l-4.108 8.217-.054.09a.75.75 0 0 1-.617.324H12.71a.75.75 0 0 1-.728-.932l1.925-7.699H9.245l-3.018 3.018a.75.75 0 0 1-.53.22H3a.75.75 0 0 1-.705-1.007l2.064-5.678-2.064-5.677-.026-.087A.75.75 0 0 1 3 9.316h2.698l.147.015c.144.029.278.1.383.205l3.017 3.017h4.663l-1.925-7.7a.75.75 0 0 1 .728-.931h3.236zm-.455 9.191a.75.75 0 0 1-.728.932H8.933a.75.75 0 0 1-.53-.22l-3.016-3.017H4.07l1.791 4.927c.06.166.06.347 0 .513L4.07 21.184h1.317l3.016-3.018.114-.093a.75.75 0 0 1 .416-.127h5.934a.75.75 0 0 1 .728.933l-1.924 7.698h1.811l4.109-8.216a.75.75 0 0 1 .67-.415h6.042a1.947 1.947 0 1 0 0-3.893h-6.041a.75.75 0 0 1-.671-.415l.67-.335v-.001l-.67.336-4.108-8.216H13.67z"/></svg>
